!!!COM: Bach, Johann Sebastian
!!!OTL: 273. Ein' feste Burg ist unser Gott
!!!ONM: No. 273
!!!OCL: Erk
!!!SCA: BWV 80.8
!!!YOE: Riemenschneider, Albert
!!!OPR: 371 Harmonized Chorales and 69 Chorale Melodies with Figured Bass
!!!OPT: Bach Chorale Harmonizations
!!!ONB: From the end of Cantata 80.
**kern	**kern	**kern	**kern	**harm	**root
!bass	!tenor	!alto	!sprno	!	!
*Iorgan	*Iorgan	*Iorgan	*Iorgan	*Iorgan	*Iorgan
*>[A,A,B]	*>[A,A,B]	*>[A,A,B]	*>[A,A,B]	*>[A,A,B]	*>[A,A,B]
*>norep[A,B]	*>norep[A,B]	*>norep[A,B]	*>norep[A,B]	*>norep[A,B]	*>norep[A,B]
*>A	*>A	*>A	*>A	*>A	*>A
*k[f#c#]	*k[f#c#]	*k[f#c#]	*k[f#c#]	*k[f#c#]	*k[f#c#]
*D:	*D:	*D:	*D:	*D:	*D:
*met(C)	*met(C)	*met(C)	*met(C)	*met(C)	*met(C)
*M4/4	*M4/4	*M4/4	*M4/4	*M4/4	*M4/4
*MM60	*MM60	*MM60	*MM60	*MM60	*MM60
8d	8f#	4a	4dd	I	4DD
8c#	8e	.	.	.	.
=1	=1	=1	=1	=1	=1
4B	8d	8a	4dd	vi7	4BB
.	8e	8g	.	.	.
8A	8f#	8f#	4dd	Ic	4DD
8G	8g	8e	.	.	.
8F#	4a	4d	8a	Ib	8DD
8G	.	.	8b	IV	8GG
8F#	4g	4e	4cc#	viib	4CC#
8E	.	.	.	.	.
=2	=2	=2	=2	=2	=2
4F#	4f#	8A	8dd	Ib	8DD
.	.	4a	8cc#	iii	8FF#
4E	8B	.	4b	V/V	4EE
.	8e	8g#	.	.	.
4AA;	4c#;	4e;	4a;	V;	4AA;
4BB	8F#	4b	4dd	vi	4BB
.	8G#	.	.	.	.
=3	=3	=3	=3	=3	=3
8C#	4A	8e	4cc#	Vb	4AA
8D	.	8f#	.	.	.
4E	8e	4g	4b	ii	4EE
.	8d	.	.	.	.
4F#	4c#	8f#	4a	iii	4FF#
.	.	8e	.	.	.
8G	8B	8d	8b	IV	8GG
8A	8c#	8c#	8a	V	8AA
=4	=4	=4	=4	=4	=4
8B	4d	4B	8g	IVb	4GG
8G	.	.	8f#	.	.
8A	8A	4c#	4e	V	4AA
8AA	8G	.	.	.	.
4D;	4F#;	4A;	4d;	I;	4DD;

=:|!	=:|!	=:|!	=:|!	=:|!	=:|!
*>B	*>B	*>B	*>B	*>B	*>B

!! Repeat from the beginning.

!! Continuing.

8D	8F#	4d	4d	I	4DD
8E	8G	.	.	.	.
=5	=5	=5	=5	=5	=5
4F#	8A	8c#	4a	iii	4FF#
.	8d	8f#	.	.	.
4G#	8c#	4e	4b	Vb/V	4EE
.	8B	.	.	.	.
8A	4c#	8e	4a	V	4AA
8D	.	8f#	.	.	.
4E	4B	4e	4g#	V/V	4EE
=6	=6	=6	=6	=6	=6
!!linebreak: 2
2AA;	2c#;	2e;	2a;	V;	2AA;
4BB	8F#	4d	4d	vi	4BB
.	8G	.	.	.	.
4F#	4A	8d	4a	Ib	4DD
.	.	8cn	.	.	.
=7	=7	=7	=7	=7	=7
4G	4d	8B	4b	IV	4GG
.	.	8d	.	.	.
4E	4e	4g	4cc#	viib	4CC#
4D;	4A;	4f#;	4dd;	I;	4DD;
4F#	4A	4f#	4cc#	iii	4FF#
=8	=8	=8	=8	=8	=8
4BB	8A	4f#	4dd	vi7	4BB
.	8G#	.	.	.	.
4C#	4A	8e	4cc#	Vb	4AA
.	.	8a	.	.	.
4D	4A	4f#	2b	vi7b	4BB
4E	4G#	8e	.	V/V	4EE
.	.	8d	.	.	.
=9	=9	=9	=9	=9	=9
4AA;	4E;	4c#;	4a;	V;	4AA;
8E	8Gn	4e	4b	ii	4EE
8F#	8A	.	.	.	.
4G	8B	8d	4b	IV	4GG
.	8c#	8e	.	.	.
4D	8d	4f#	4a	I	4DD
.	8cn	.	.	.	.
=10	=10	=10	=10	=10	=10
4D#	4B	4f#	8b	Vb/ii	4BB
.	.	.	8a	.	.
4E	4B	8f#	4g	ii	4EE
.	.	8e	.	.	.
4BB;	4B;	4d#;	4f#;	VI;	4BB;
4BB	8B	4f#	4ddn	vi	4BB
.	8A	.	.	.	.
=11	=11	=11	=11	=11	=11
8E	8G	4e	4cc#	viib	4CC#
8F#	8A	.	.	.	.
8G	4B	8dn	4b	IV	8GG
8E	.	8g	.	ii	8EE
8C#	8e	8g	4a	V7b	8AA
8AA	8c#	16f#	.	V	8AA
.	.	16e	.	.	.
8D	4d	4f#	8b	I	4DD
8C#	.	.	8a	.	.
=12	=12	=12	=12	=12	=12
8BB	4d	8g	8g	IVb	8GG
8GG	.	8B	8f#	IV7	8GG
4AA	8A	4c#	4e	V	4AA
.	8G	.	.	.	.
4DD;	4F#;	4A;	4d;	I;	4DD;
==	==	==	==	==	==
*-	*-	*-	*-	*-	*-
!!!CDT: 1685/3//-1750/7/28
!!!OCY: Deutschland
!!!AGN: chorale
!!!AST: Baroque
!!!AIN: vox
!!!YOY: 1941
!!!PPP: New York; London
!!!PPR: G. Schirmer
!!!ENC: David Huron
!!!EED: David Huron
!!!YEN: United States of America
!!!YER: 1992
!!!YEC: Copyright 1992 David Huron
!!!YEM: Rights to all derivative electronic formats reserved.
!!!YER: March 20, 1996
!!!AMT: simple quadruple
!!!EEV: 1.1
!!chor2scor: -l 2 -s 0.6 -o %b.pmx
